X:1
T:Title
%%score { ( 1 4 5 ) | ( 2 3 ) }
L:1/8
Q:1/4=100
M:6/8
K:Ab
V:1 treble nm="Grand Piano"
V:4 treble 
V:5 treble 
V:2 treble 
V:3 treble 
V:1
 c3 dc>B | [CA]3 [A,CE]3 | [DF]3 BAF | [CE]6 | [DE]3 [DG]FG | A3 c3 | [A,=DF]3 cB>=A | %7
w: Thoro~Harris * * *|||||||
 [DGB]3 .[=DA_c]3 | [EAc]3 dc>B | [CA]3 [A,CE]3 | A,3- [A,-F][A,A]B | c3- [=Ec]3 | %12
w: |||||
 z3 z c2[K:bass][K:treble] | [Fd]3 [B,DF]3 | G3 GEB |[M:5/8] [CA]-[CA]- [CA]3 |[M:1/8] [Ae] | %17
w: |||||
[M:3/4] [Ge]3 [GB]2 [Ge] | c6 | [=Ec]3 [EG]2 [GB] | A6 | [GB]3 [FA]2 [DF] | [CE] [EA]3 z [Fd] | %23
w: ||||||
 c3 E2 B | [CA]6 |] %25
w: ||
V:2
 E3 FE>D | z2 E, A,,3 | A,3[K:treble] GFD | A,,2 E, C,2 A,, | z E,G, z [E,G,D][D,E,B,] | %5
 C2 A, z2 A, | B,,3[K:treble] AG>_G | [E,,E,]2 E, F,2 G, | z3[K:treble] FE>D | z2 E, A,,3 | %10
 z3 D[K:treble]F[F,F] | [C,G,]6 | [A,,A,]3 A,-[A,-_G]>[A,G] | A,2- [C,A,] B,,3 | [E,B,D]3 DD[G,D] | %15
[M:5/8] [A,,A,]-[A,,A,]- [A,,A,]3 |[M:1/8] [A,C] |[M:3/4] [E,B,]3 [E,D]2 [E,B,] | %18
 A2 z2 z[K:bass] [A,E] | [C,G,]3 [C,B,]2 [C,G,] | [F,F]4- [F,F][F,CF] | [D,D]3 [D,D]2 [D,A,] | %22
 [A,,A,] [C,A,]3 z [B,,A,] | [E,A,E]3 [E,A,C]2 [E,G,D] | [A,,A,]6 |] %25
V:3
 x6 | A,,3 z3 | x3[K:treble] x3 | x6 | B,,3 .B,,3 | C,3 A,,3 | x3[K:treble] x3 | x6 | %8
 A,6[K:treble] | A,,3 z3 | D,6[K:treble] | x6 | z3 .A,,3 | .D,3 z3 | z3 .[E,B,]3 |[M:5/8] x5 | %16
[M:1/8] x |[M:3/4] x6 | [A,C]6[K:bass] | x6 | A,2 z2 z2 | x6 | x6 | x6 | x6 |] %25
V:4
 x6 | x6 | x6 | .A,3 z3 | x6 | z2 F E2 C | x6 | x6 | x6 | x6 | [DF]3 z3 | F3 z3 | %12
 [_Gce]3 .[Gce]2[K:bass] z/[K:treble] A/ | x6 | x6 |[M:5/8] x5 |[M:1/8] x |[M:3/4] x6 | %18
 z z/ G/ F E2 c | x6 | z z/ C/ D C2 A | x6 | x6 | x6 | x6 |] %25
V:5
 x6 | x6 | x6 | x6 | x6 | x6 | x6 | x6 | x6 | x6 | x6 | x6 | z3 z2[K:bass] C,[K:treble] | x6 | x6 | %15
[M:5/8] x5 |[M:1/8] x |[M:3/4] x6 | x6 | x6 | x6 | x6 | x6 | x6 | x6 |] %25

